X: 2681
T: Banks Of Allan, The
R: jig
M: 6/8
K: Dmajor
D|DFF FED|FAA A2d/c/|Bdd Add|Bdd AFE|
DFF FED|FAA A2c|(B/c/dB) AGF|1 EFE E2:|2 EFE D2||
e|fgf fed|faa a2f|efe edB|def g2g|
fgf efe|ded cBA|(B/c/dB) AGF|1 EFE E2:|2 EFE D2||
|:~F3 FED|FAA A2d|Bdd Add|Bdd AFE|
~F3 FED|FAA A2d|Bdd AFD|1 ~E3 EDE:|2 E3 D3
|:~f3 fed|faa afd|efe edB|def ~g3|
~f3 efe|ded cBA|BdB AFD|1 ~E3 E2z:|2 E3 D3||

